X:1
T:Nola
T:Nola
T:A Silholuette for the Piano
T:Felix Arndt
T:by IMSLP - Pubblico dominio
T:by IMSLP - Pubblico dominio
T:by IMSLP - Pubblico dominio
T:by IMSLP - Pubblico dominio
T:by IMSLP - Pubblico dominio
T:by IMSLP - Pubblico dominio
T:by IMSLP - Pubblico dominio
C:Felix Arndt
Z:by IMSLP - Pubblico dominio
%%score { ( 1 3 ) | ( 2 4 5 ) }
L:1/8
Q:1/4=150
M:2/2
K:D
V:1 treble nm="Piano" snm="Pno."
V:3 treble 
V:2 bass 
V:4 bass 
V:5 bass 
V:1
"^Lightly"!p!"^Swing" (3(DEF) B>D E>F A>D | (3(EFB) D>E (3(FAF) (3(EDB,) | (3(EF^G) e>E F>G d>E | %3
 (3(F^Gc) E>F (3(GBA (3GFE) | (3(A,B,C) A>A, B,>C G>A, | (3(B,CF) A,>B, (3(CED (3CB,A,) | %6
!<(! (3(EFB (3AFD (3C DF!<)! (3B ^G A | (3df c (3d!>(!fb (3afd (3BAF)!>)! | (3(DEF) B>D E>F A>D | %9
 (3(EFB) D>E (3(FAF (3EDB,) | (3(EF^G) e>E F>G d>E | (3(F^Gc) E>F (3(GBA (3GFE) | %12
 (3(ABc) a>A B>c g>A | (3(Bcf) A>B (3(ced (3cBA) | %14
 (3(dBA (3FE[I:staff +1] D (3B,A,"_R. H." F, (3E,D,B,,) |[I:staff -1] x2 [A,CEGA] z [DFAd] z z2 || %16
[K:F]!mf! (A2 f>)f (3(^G^^FG f>)f | (3(=G^FG) (3(e^de) (3(=FEF- [Fd]>)d | %18
 (3(E^DE (3_BGE) (3(=DAG (3FED) | (3(^CDE (3A,=B,C) (3DF_B x2 | (A2 f>)f (3(^G^^FG f>)f | %21
 (3(=G^FG) (3(e^de) (3(=FEF- [F=d]>)d | (3(E_BG (3EDB,)!<(! (3([F=B]D=B,) [Cc]2 | %23
 (3[G^c]E^C [Dd]2!<)! (3([_ea]=cA- [A=e]2) ||[K:D]!p! (3(DEF) B>D E>F A>D | %25
 (3(EFB) D>E (3(FAF (3EDB,) | (3(EF^G) e>E F>G d>E | (3(F^Gc) E>F (3(GBA (3GFE) | %28
 (3(A,B,C) A>A, B,>C G>A, | (3(B,CF) A,>B, (3(CED (3CB,A,) |!<(! (3(EFB (3AFD (3C DF!<)! (3B ^G A | %31
 (3df c (3d!>(!fb (3afd (3BAF)!>)! | (3(DEF) B>D E>F A>D | (3(EFB) D>E (3(FAF (3EDB,) | %34
 (3(EF^G) e>E F>G d>E | (3(F^Gc) E>F (3(GBA (3GFE) | (3(ABc) a>A B>c g>A | %37
 (3(Bcf) A>B (3(ced) (3(cBA) | (3(dBA (3FE[I:staff +1] D (3B,A,"_R. H." F, (3E,D,B,,) | %39
[I:staff -1] x2 [A,CEGA] z [DFAd] z z2 || %40
[K:G]!p! (3(DdB (3GD)[I:staff +1] !>!^D,[I:staff -1] E2 [G,B,E]2 | F>G ^G>A e z [EF^ce]2 | %42
 F>G ^G>A e z [F^Af]2 | [GBe]>f [Ge]>B (3(dc^G (3BAF) | %44
 (3(DdB) (3GD[I:staff +1] !>!^D,[I:staff -1] (3(DDB,[I:staff +1] (3G,E,)"_L. H." ^E, | %45
[I:staff -1] F>G ^G>A!<(! (3:2:2(!courtesy!^G ^c2- (3c)zB | A>^A B>^B (3:2:2(^c g2- (3g)zf!<)! | %47
 e>d (3(=cBA)!>(! (3(^GBA (3FE_E)!>)! | %48
 (3D-dB (3GD[I:staff +1] !>!^D,[I:staff -1] (3(EDB,[I:staff +1] (3G,E,) ^E, | %49
[I:staff -1] F>G ^G>A e z [EFce]2 | F>G ^G>A{/^A} f2 [F!courtesy!^Af]2 | %51
 [GBe]>f [Ge]>B (3(dc^G (3BAF) | d>=F (3(GBd) c>C (3(EGc) | (3(cgc) G>A [GB]2 !>![G_Bf]>e | %54
 [G=Bd] z !>![g_bf']>c' [g=bd'] z [Bgb]2 | (3([cfa]ed (3cBA) [GBdg]2 z2 || %56
!mf! (3(b^ab) B>b =a>b B>b | g>b B>b f>b B>b | (3(egc' (3bge (3^d eg (3f gb | %59
 (3^d eg (3^A Be (3F GB (3^D EG) | (3(a^ga) A>a =g>a A>a | f>a A>a e>a A>a | %62
 (3(dfb (3afd (3^c df (3^e fa | (3^c df (3^G Ad (3^E FA (3^C DF) | %64
[I:staff +1] (3D,F,A,!<(![I:staff -1] (3DFA | (3df!8va(!a' (3d'f'a'!<)! | %66
 (3(^c'' c''b'!>(! (3^g' b'a' (3^c' e'd'!8va)! (3^g ba | %67
 (3^c ed (3^G BA (3^C ED!>)![I:staff +1] (3^G, B,A,) | %68
!mf![I:staff -1] (3(DdB (3G)D[I:staff +1] !>!^D,[I:staff -1] E2 [G,B,E]2 | F>G ^G>A e z [EF^ce]2 | %70
 F>G ^G>A e z [F^Af]2 | [GBe]>f [Ge]>B (3(dc^G (3BAF) | %72
 (3(DdB (3GD)[I:staff +1] !>!^D,[I:staff -1] (3(EDB,[I:staff +1] (3G,E,)"_L. H." ^E, | %73
[I:staff -1] F>G ^G>A!<(! (3:2:2(!courtesy!^G ^c2- (3c)zB | A>^A B>^B (3:2:2(^c g2- (3g)zf!<)! | %75
 e>d (3(=cBA)!>(! (3(^GBA (3FE_E)!>)! | %76
 (3D-dB (3GD[I:staff +1] !>!^D,[I:staff -1] (3(EDB,[I:staff +1] (3G,E,) ^E, | %77
[I:staff -1] F>G ^G>A e z [EFce]2 | F>G ^G>A{/^A} f z [F!courtesy!^Af]2 | %79
 [GBe]>f [Ge]>f (3(dc^G (3BAF) | d>=F (3(GBd) c>C (3(EGc) | (3(cgc) G>A [GB]2 !>![G_Bf]>e | %82
 [G=Bd] z !>![g_bf']>c' [g=bd'] z [Bgb]2 | (3([cfa]ed (3cBA) [GBdg]2 z2 || %84
[K:D]!p! (3(DEF) B>D E>F A>D | (3(EFB) D>E (3(FAF (3EDB,) | (3(EF^G) e>E F>G d>E | %87
 (3(F^Gc) E>F (3(GBA (3GFE) | (3(A,B,C) A>A, B,>C G>A, | (3(B,CF) A,>B, (3(CED (3CB,A,) | %90
!<(! (3(EFB (3AFD (3C DF!<)! (3B ^G A | (3df c (3d!>(!fb (3afd (3BAF)!>)! | (3(DEF) B>D E>F A>D | %93
 (3(EFB) D>E (3(FAF (3EDB,) | (3(EF^G) e>E F>G d>E | (3(F^Gc) E>F (3(GBA (3GFE) | %96
 (3(ABc) a>A B>c g>A | (3(Bcf) A>B (3(ced (3cBA) | %98
 (3(dBA (3FE[I:staff +1] D (3B,A,"_R. H." F, (3E,D,B,,) |[I:staff -1] x2 [A,CEGA] z [DFAd] z z2 | %100
 (3(^def) b>a (3(def) d'>d' | (3(AB^c) f>e (3(dBA (3GFE) | (3(DEF) B>A (3(DEG) d>d | %103
 (3(A,B,C) F>E (3(CB,A,[I:staff +1] (3G,F,E,) | (3D,F,A,[I:staff -1] (3DFA | (3dfa!8va(! (3d'f'a' | %106
 a''!8va)! z z2 [Acga] z z2 | [dfad'] z z2 x4 |] %108
V:2
 D,,2 [F,B,]2 A,,,2 [F,A,]2 | D,,2 [F,B,]2 A,,,2 [F,A,]2 | B,,2 [^G,D]2 E,,2 [G,D]2 | %3
 B,,2 [^G,D]2 F,2 G,2 | E,,2 =G,2 A,,,2 G,2 | E,,2 G,2 A,,,2 G,2 | %6
 !arpeggio![D,,A,,F,] z z2"^L. H." x4 | x8 | D,,2 [F,B,]2 A,,,2 [F,A,]2 | %9
 D,,2 [F,B,]2 A,,,2 [F,A,]2 | B,,2 [^G,D]2 E,,2 [G,D]2 | B,,2 [^G,D]2 F,2 G,2 | %12
 E,,2 [CG]2 A,,,2 [B,CG]2 | E,,2 [A,CG]2 B,2 C2 | !arpeggio![D,A,F] z z2 x4 | %15
 z2 G, z !arpeggio![D,,A,,F,] z D,,, z ||[K:F] [D,A,]2 [A,F]2 [D,=B,]2 [B,E]2 | %17
 [D,_B,]2 [B,E]2 [D,A,]2 [A,D]2 | G,,2 [B,D]2 A,,2 [F,A,]2 | %19
 A,,,2 G,2"^L. H." !arpeggio![D,,A,,F,]2[I:staff -1] (3^G Aa | %20
[I:staff +1] [D,A,]2 [A,F]2 [D,=B,]2 [B,E]2 | [D,_B,]2 [B,E]2 [D,A,]2 [A,D]2 | %22
 G,,2 !>!G,2 !>!^G,2 !>!A,2 | !>!^A,2 !>!=B,2 z4 ||[K:D] D,,2 [F,B,]2 A,,,2 [F,A,]2 | %25
 D,,2 [F,B,]2 A,,,2 [F,A,]2 | B,,2 [^G,D]2 E,,2 [G,D]2 | B,,2 [^G,D]2 F,2 G,2 | %28
 E,,2 =G,2 A,,,2 G,2 | E,,2 G,2 A,,,2 G,2 | !arpeggio![D,,A,,F,] z z2"^L. H." x4 | x8 | %32
 D,,2 [F,B,]2 A,,,2 [F,A,]2 | D,,2 [F,B,]2 A,,,2 [F,A,]2 | B,,2 [^G,D]2 E,,2 [G,D]2 | %35
 B,,2 [^G,D]2 F,2 G,2 | E,,2 [CG]2 A,,,2 [B,CG]2 | E,,2 [A,CG]2 B,2 C2 | %38
 !arpeggio![D,A,F] z z2 x4 | z2 G, z !arpeggio![D,,A,,F,] z D,,, z ||[K:G]{/G,,} D,2- D,2 x4 | %41
 [A,,F,]2 [F,CD]2 D,,2 [F,^C]2 | [A,,F,]2 [F,CD]2 D,,2 [^A,D]2 | %43
 !arpeggio![G,,B,]2 [B,E]2 [A,,F,]2 [CD]2 |{/G,,} D,2- D,2 =D,,2 x2 | %45
 [A,,F,]2 [A,D]2 =F,,2 [^G,D=F]2 | E,,2 [B,^CG]2 A,,,2 [A,CG]2 | [A,,D,F,=C]2 z2 z4 | %48
{/G,,} [G,,D,-]2 D,2 G, x x2 | [A,,F,]2 [F,CD]2 D,,2 [F,C]2 | [A,,F,]2 [F,CD]2 D,,2 [^A,D]2 | %51
 !arpeggio![G,,B,]2 [B,E]2 [A,,F,]2 [CD]2 | =F,,2 [G,B,]2 E,,2 G,2 | E2 _E2 [G,D]2 !>!^C2 | %54
 D z x2 x4 | [D,C]4 !arpeggio![G,,D,B,]2 z2 || F,,2 [B,^DA]2 B,,,2 [B,DA]2 | %57
 ^C,,2 [B,^DA]2 ^D,,2 [B,DG]2 | !arpeggio![E,B,G] z z2"^L. H." x4 | x8 | %60
 E,,2 [A,^CG]2 A,,,2 [A,CG]2 | B,,,2 [A,CG]2 ^C,,2 [A,^CG]2 | !arpeggio![D,A,F] z"^L. H." z2 x4 | %63
 x8 | (3^C,^E,^G,[I:staff -1] (3^C^E^G | (3^c^e^g (3^c^e^g |[I:staff +1] x8 | x8 | %68
{/G,,} D,2- D,2 x4 | [A,,F,]2 [F,CD]2 D,,2 [F,^C]2 | [A,,F,]2 [F,CD]2 D,,2 [^A,D]2 | %71
 !arpeggio![G,,B,]2 [B,E]2 [A,,F,]2 [CD]2 |{/G,,} D,2- D,2 =D,,2 x2 | %73
 [A,,F,]2 [A,D]2 =F,,2 [^G,D=F]2 | E,,2 [B,^CG]2 A,,,2 [A,CG]2 | [A,,D,F,=C]2 z2 z4 | %76
{/G,,} [G,,D,-]2 D,2 G, x x2 | [A,,F,]2 [F,CD]2 D,,2 [F,C]2 | [A,,F,]2 [F,CD]2 D,,2 [^A,D]2 | %79
 !arpeggio![G,,B,]2 [B,E]2 [A,,F,]2 [CD]2 | =F,,2 [G,B,]2 E,,2 G,2 | E2 _E2 [G,D]2 !>!^C2 | %82
 D z x2 x4 | [D,C]4 !arpeggio![G,,D,B,]2 z2 ||[K:D] D,,2 [F,B,]2 A,,,2 [F,A,]2 | %85
 D,,2 [F,B,]2 A,,,2 [F,A,]2 | B,,2 [^G,D]2 E,,2 [G,D]2 | B,,2 [^G,D]2 F,2 G,2 | %88
 E,,2 =G,2 A,,,2 G,2 | E,,2 G,2 A,,,2 G,2 | !arpeggio![D,,A,,F,] z z2"^L. H." x4 | x8 | %92
 D,,2 [F,B,]2 A,,,2 [F,A,]2 | D,,2 [F,B,]2 A,,,2 [F,A,]2 | B,,2 [^G,D]2 E,,2 [G,D]2 | %95
 B,,2 [^G,D]2 F,2 G,2 | E,,2 [CG]2 A,,,2 [B,CG]2 | E,,2 [A,CG]2 B,2 C2 | %98
 !arpeggio![D,A,F] z z2 z4 | z2 G, z !arpeggio![D,,A,,F,] z D,,, z | x8 | x8 | %102
 ^C2 =C2 (B,2- [D,B,]2) | ^G,2 (=G,2- [A,,G,]2) z2 | (3^C,^E,^G,[I:staff -1] (3^C^E^G | %105
 (3c^e^g (3^c^e^g |"^L. H."[I:staff +1] E4 [A,G] z x2 | !arpeggio![D,A,F] z z2 D,, z z2 |] %108
V:3
 x8 | x8 | x8 | x8 | x8 | x8 | x8 | x8 | x8 | x8 | x8 | x8 | x8 | x8 | x3 z x4 | x8 ||[K:F] x8 | %17
 x8 | x8 | x8 | x8 | x8 | x8 | x4 [=C^F]2 [^CG]2 ||[K:D] x8 | x8 | x8 | x8 | x8 | x8 | x8 | x8 | %32
 x8 | x8 | x8 | x8 | x8 | x8 | x3 z x4 | x8 ||[K:G] D2 x4/3 z/30 z x169/64 ^E | x8 | x8 | x8 | %44
 D2 x6 | x8 | x8 | x8 | x10/3 z/30 z x109/30 | x8 | x8 | x8 | x8 | x8 | x2 !>!^c2 d x E2 | x8 || %56
 x8 | x8 | x8 | x8 | x8 | x8 | x8 | x8 | x4 | x4/3!8va(! x8/3 | x6!8va)! x2 | x8 | %68
 D2 x4/3 z/30 z x169/64 ^E | x8 | x8 | x8 | D2 x6 | x8 | x8 | x8 | x10/3 z/30 z x109/30 | x8 | x8 | %79
 x8 | x8 | x8 | x2 !>!^c2 d x E2 | x8 ||[K:D] x8 | x8 | x8 | x8 | x8 | x8 | x8 | x8 | x8 | x8 | %94
 x8 | x8 | x8 | x8 | x3 z x4 | x8 | ^c2 =c2 (B2- [DB]2) | ^G2 =G2 F z z2 | x8 | x8 | x4 | %105
 x2!8va(! x2 | x!8va)! x7 | x8 |] %108
V:4
 x8 | x8 | x8 | x8 | x8 | x8 | x8 | x8 | x8 | x8 | x8 | x8 | x8 | x8 | x8 | A,,, z x2 z4 || %16
[K:F] x8 | x8 | x8 | x8 | x8 | x8 | x8 | x8 ||[K:D] x8 | x8 | x8 | x8 | x8 | x8 | x8 | x8 | x8 | %33
 x8 | x8 | x8 | x8 | x8 | x8 | A,,, z x2 z4 ||[K:G] x4 E,2- E,2 | x8 | x8 | x8 | %44
 x3 z (3:2:2E, x2 x2 | x8 | x8 | x8 | x8 | x8 | x8 | x8 | x8 | G,4 x4 | x8 | x8 || x8 | x8 | x8 | %59
 x8 | x8 | x8 | x8 | x8 | x4 | x4 | x8 | x8 | x4 E,2- E,2 | x8 | x8 | x8 | x4 (3:2:2E, x2 x2 | x8 | %74
 x8 | x8 | x8 | x8 | x8 | x8 | x8 | G,4 x4 | x8 | x8 ||[K:D] x8 | x8 | x8 | x8 | x8 | x8 | x8 | %91
 x8 | x8 | x8 | x8 | x8 | x8 | x8 | x8 | A,,, z x2 z4 | x8 | x8 | x8 | x8 | x4 | x4 | x8 | %107
 x4 D,,, z z2 |] %108
V:5
 x8 | x8 | x8 | x8 | x8 | x8 | x8 | x8 | x8 | x8 | x8 | x8 | x8 | x8 | x8 | x8 ||[K:F] x8 | x8 | %18
 x8 | x8 | x8 | x8 | x8 | x8 ||[K:D] x8 | x8 | x8 | x8 | x8 | x8 | x8 | x8 | x8 | x8 | x8 | x8 | %36
 x8 | x8 | x8 | x8 ||[K:G] x4 =D,,2 =D,2 | x8 | x8 | x8 | x8 | x8 | x8 | x8 | x4 =D,,2 x2 | x8 | %50
 x8 | x8 | x8 | x8 | x8 | x8 || x8 | x8 | x8 | x8 | x8 | x8 | x8 | x8 | x4 | x4 | x8 | x8 | %68
 x4 =D,,2 =D,2 | x8 | x8 | x8 | x8 | x8 | x8 | x8 | x4 =D,,2 x2 | x8 | x8 | x8 | x8 | x8 | x8 | %83
 x8 ||[K:D] x8 | x8 | x8 | x8 | x8 | x8 | x8 | x8 | x8 | x8 | x8 | x8 | x8 | x8 | x8 | x8 | x8 | %101
 x8 | x8 | x8 | x4 | x4 | x8 | x8 |] %108

